X:128
T:Haymakers - Benney
F:http://www.vwml.org/record/SBG/3/
Z:Original Sibelius transcriptions by M. & S. Graebe
M:4/4
I:linebreak $
K:C
V:1 treble nm="P1"
V:1
 G2 | c2 cc c2 BA | AG GG G2 GE | CE GA A2 GE | D6 GG |$ c2 cc c2 BA | AG GG G2 GG | d2 BG BA G^F | %8
 G4 | G2 F2 GG c2 BA |$ AG GG G2 CE | G2 GG A2 GE | D4 GF | c2 cc c2 BA | AG GG G2 GG |$ %15
 d2 BG BAG^F | G6 |"^chorus" GG | E2 GG c2 BA | AG G2 G2 CE | G2 GG A2 GE |$ D6 EF | %22
"^ad lib." G !fermata!c c c e !fermata!c c c | BA A2 !fermata!AG GG | c2 c e ed cB | c4 x4 | %26

